svgs/1F641.svg

<svg xmlns="http://www.w3.org/2000/svg" xmlns:xlink="http://www.w3.org/1999/xlink" preserveAspectRatio="none" viewBox="0 0 72 72"><defs><path id="a" fill="#FCC21B" d="M127.65 93.35q0-27-8.5-47.05-15.6-36.65-55.3-36.65Q24.2 9.65 8.6 46.3.1 66.35.1 93.35q0 10.4 18.7 17.7 18.65 7.35 45.05 7.35 26.45 0 45.1-7.35 18.7-7.3 18.7-17.7z"/><path id="b" fill="#2F2F2F" d="M36.05 51.5q-2.35 2.9-2.3 6.9.05 4 2.45 6.85 2.45 2.8 5.8 2.75 3.35 0 5.7-2.85 2.35-2.9 2.3-6.9-.05-4-2.45-6.85-2.4-2.85-5.75-2.8-3.35.05-5.75 2.9z"/><path id="c" fill="#2F2F2F" d="M94.2 58.3q-.05-4-2.4-6.85-2.4-2.85-5.75-2.8-3.35 0-5.75 2.85t-2.4 6.85q.05 4 2.45 6.85 2.4 2.85 5.75 2.8 3.35 0 5.7-2.85 2.4-2.85 2.4-6.85z"/><path id="d" fill="#2F2F2F" d="M49.1 49.15q0-.75-.55-1.3-.1-.05-3.45-2.45-4.25-2.3-9.2-2.3-5 0-9.25 2.3-2.2 1.2-3.45 2.45-.55.55-.5 1.3 0 .75.55 1.3t1.25.55q.8-.05 1.3-.6 1.05-.95 2.7-1.85 3.4-1.8 7.4-1.8 3.95 0 7.35 1.8 2.6 1.8 2.7 1.85.5.55 1.25.6.75 0 1.3-.55t.6-1.3z"/></defs><use transform="scale(.5625)" xlink:href="#a"/><use transform="matrix(.56248 0 0 .56248 0 -2.5)" xlink:href="#b"/><use transform="matrix(.56248 0 0 .56248 0 -2.5)" xlink:href="#c"/><use xlink:href="#d"/></svg>

<svg xmlns="http://www.w3.org/2000/svg" version="1.1" xmlns:xlink="http://www.w3.org/1999/xlink" preserveAspectRatio="none" x="0px" y="0px" width="72px" height="72px" viewBox="0 0 72 72">
<defs>
<g id="Layer0_0_FILL">
<path fill="#FCC21B" stroke="none" d="
M 127.65 93.35
Q 127.65 66.35 119.15 46.3 103.55 9.65 63.85 9.65 24.2 9.65 8.6 46.3 0.1 66.35 0.1 93.35 0.1 103.75 18.8 111.05 37.45 118.4 63.85 118.4 90.3 118.4 108.95 111.05 127.65 103.75 127.65 93.35 Z"/>
</g>

<g id="Layer0_1_MEMBER_0_FILL">
<path fill="#2F2F2F" stroke="none" d="
M 36.05 51.5
Q 33.7 54.4 33.75 58.4 33.8 62.4 36.2 65.25 38.65 68.05 42 68 45.35 68 47.7 65.15 50.05 62.25 50 58.25 49.95 54.25 47.55 51.4 45.15 48.55 41.8 48.6 38.45 48.65 36.05 51.5 Z"/>
</g>

<g id="Layer0_1_MEMBER_1_FILL">
<path fill="#2F2F2F" stroke="none" d="
M 94.2 58.3
Q 94.15 54.3 91.8 51.45 89.4 48.6 86.05 48.65 82.7 48.65 80.3 51.5 77.9 54.35 77.9 58.35 77.95 62.35 80.35 65.2 82.75 68.05 86.1 68 89.45 68 91.8 65.15 94.2 62.3 94.2 58.3 Z"/>
</g>

<g id="Layer0_2_FILL">
<path fill="#2F2F2F" stroke="none" d="
M 49.1 49.15
Q 49.1 48.4 48.55 47.85 48.45 47.8 45.1 45.4 40.85 43.1 35.9 43.1 30.9 43.1 26.65 45.4 24.45 46.6 23.2 47.85 22.65 48.4 22.7 49.15 22.7 49.9 23.25 50.45 23.8 51 24.5 51 25.3 50.95 25.8 50.4 26.85 49.45 28.5 48.55 31.9 46.75 35.9 46.75 39.85 46.75 43.25 48.55 45.85 50.35 45.95 50.4 46.45 50.95 47.2 51 47.95 51 48.5 50.45 49.05 49.9 49.1 49.15 Z"/>
</g>
</defs>

<g id="Layer_1">
<g transform="matrix( 0.5625, 0, 0, 0.5625, 0,0) ">
<use xlink:href="#Layer0_0_FILL"/>
</g>

<g transform="matrix( 0.5624847412109375, 0, 0, 0.5624847412109375, 0,-2.5) ">
<use xlink:href="#Layer0_1_MEMBER_0_FILL"/>
</g>

<g transform="matrix( 0.5624847412109375, 0, 0, 0.5624847412109375, 0,-2.5) ">
<use xlink:href="#Layer0_1_MEMBER_1_FILL"/>
</g>

<g transform="matrix( 1, 0, 0, 1, 0,0) ">
<use xlink:href="#Layer0_2_FILL"/>
</g>
</g>
</svg>
